X: 22149
T: Kylebrack Rambler, The
R: reel
M: 4/4
K: Dmixolydian
|:dA~A2 dA=fA|dA~A2 cAGA|dA~A2 dAda|fdaf gefg|
adde d^cAB|cGAc G~E3|cBAG Ad~d2|1 fage d3^c:|2 fage defg||
|:afga fd~d2|dedc AGdB|c2Gc EGce|dced cAGE|
~d2fA ~d2fd|^cA~A2 EA^cA|GE~E2 cDEG|1 cAGE defg:|2 cAGE DEFG||
|:AD~D2 AD~D2|dA~A2 dcAB|BcdB cAGE|ccBd cGEG|
FD~D2 AD~D2|dA~A2 dcAB|BcdB cAGE|1 cEGE DEFG:|2 cEGE D3^c||

